archdroid-icon-theme/Archdroid-Amber/categories/scalable/applications-ruby.svg

<svg height="77.665001" width="77.665001" xmlns="http://www.w3.org/2000/svg" xmlns:xlink="http://www.w3.org/1999/xlink"><linearGradient id="a" gradientUnits="userSpaceOnUse" x1="174.0737" x2="132.276306" y1="215.548798" y2="141.753296"><stop offset="0" stop-color="#fb7655"/><stop offset=".41" stop-color="#e42b1e"/><stop offset=".99" stop-color="#900"/><stop offset="1" stop-color="#900"/></linearGradient><linearGradient id="b"><stop offset="0" stop-color="#871101"/><stop offset=".99" stop-color="#911209"/><stop offset="1" stop-color="#911209"/></linearGradient><linearGradient id="c" gradientUnits="userSpaceOnUse" x1="194.895004" x2="141.027603" xlink:href="#b" y1="153.557602" y2="117.409302"/><linearGradient id="d" gradientUnits="userSpaceOnUse" x1="151.795395" x2="97.929703" xlink:href="#b" y1="217.785202" y2="181.638"/><linearGradient id="e" gradientUnits="userSpaceOnUse" x1="38.696301" x2="47.046902" y1="127.390602" y2="181.661407"><stop offset="0" stop-color="#fff"/><stop offset=".23" stop-color="#e57252"/><stop offset=".46" stop-color="#de3b20"/><stop offset=".99" stop-color="#a60003"/><stop offset="1" stop-color="#a60003"/></linearGradient><linearGradient id="f" gradientUnits="userSpaceOnUse" x1="96.132797" x2="99.209602" y1="76.715302" y2="132.102097"><stop offset="0" stop-color="#fff"/><stop offset=".23" stop-color="#e4714e"/><stop offset=".56" stop-color="#be1a0d"/><stop offset=".99" stop-color="#a80d00"/><stop offset="1" stop-color="#a80d00"/></linearGradient><linearGradient id="g" gradientUnits="userSpaceOnUse" x1="147.102997" x2="156.314102" y1="25.521" y2="65.216202"><stop offset="0" stop-color="#fff"/><stop offset=".18" stop-color="#e46342"/><stop offset=".4" stop-color="#c82410"/><stop offset=".99" stop-color="#a80d00"/><stop offset="1" stop-color="#a80d00"/></linearGradient><linearGradient id="h" gradientUnits="userSpaceOnUse" x1="118.976097" x2="158.668594" y1="11.5415" y2="-8.3048"><stop offset="0" stop-color="#fff"/><stop offset=".54" stop-color="#c81f11"/><stop offset=".99" stop-color="#bf0905"/><stop offset="1" stop-color="#bf0905"/></linearGradient><linearGradient id="i" gradientUnits="userSpaceOnUse" x1="3.9033" x2="7.1702" y1="113.554703" y2="146.262802"><stop offset="0" stop-color="#fff"/><stop offset=".31" stop-color="#de4024"/><stop offset=".99" stop-color="#bf190b"/><stop offset="1" stop-color="#bf190b"/></linearGradient><linearGradient id="j" gradientUnits="userSpaceOnUse" x1="125.4443" x2="279.015198" y1="77.524507" y2="-80.3893"><stop offset="0" stop-color="#bd0012"/><stop offset=".07" stop-color="#fff"/><stop offset=".17" stop-color="#fff"/><stop offset=".27" stop-color="#c82f1c"/><stop offset=".33" stop-color="#820c01"/><stop offset=".46" stop-color="#a31601"/><stop offset=".72" stop-color="#b31301"/><stop offset=".99" stop-color="#e82609"/><stop offset="1" stop-color="#e82609"/></linearGradient><linearGradient id="k" gradientUnits="userSpaceOnUse" x1="243.074699" x2="196.817699" y1="93.453203" y2="82.036592"><stop offset="0" stop-color="#8c0c01"/><stop offset=".54" stop-color="#990c00"/><stop offset=".99" stop-color="#a80d0e"/><stop offset="1" stop-color="#a80d0e"/></linearGradient><linearGradient id="l" gradientUnits="userSpaceOnUse" x1="322.525894" x2="281.432693" y1="37.934603" y2="1.103998"><stop offset="0" stop-color="#7e110b"/><stop offset=".99" stop-color="#9e0c00"/><stop offset="1" stop-color="#9e0c00"/></linearGradient><linearGradient id="m" gradientUnits="userSpaceOnUse" x1="337.623505" x2="317.154205" y1="-29.643" y2="-51.526199"><stop offset="0" stop-color="#79130d"/><stop offset=".99" stop-color="#9e120b"/><stop offset="1" stop-color="#9e120b"/></linearGradient><radialGradient id="n" cx="287.831497" cy="1.808199" gradientUnits="userSpaceOnUse" r="50.357601"><stop offset="0" stop-color="#a80d00"/><stop offset=".99" stop-color="#7e0e08"/><stop offset="1" stop-color="#7e0e08"/></radialGradient><radialGradient id="o" cx="218.0923" cy="68.171007" gradientUnits="userSpaceOnUse" r="66.943703"><stop offset="0" stop-color="#a30c00"/><stop offset=".99" stop-color="#800e08"/><stop offset="1" stop-color="#800e08"/></radialGradient><linearGradient id="p" gradientUnits="userSpaceOnUse" x1="170.669901" x2="153.9887" y1="119.755907" y2="63.162004"><stop offset="0" stop-color="#8b2114"/><stop offset=".43" stop-color="#9e100a"/><stop offset=".99" stop-color="#b3100c"/><stop offset="1" stop-color="#b3100c"/></linearGradient><linearGradient id="q" gradientUnits="userSpaceOnUse" x1="298.641098" x2="336.039001" y1="-67.7821" y2="-51.274099"><stop offset="0" stop-color="#b31000"/><stop offset=".44" stop-color="#910f08"/><stop offset=".99" stop-color="#791c12"/><stop offset="1" stop-color="#791c12"/></linearGradient><g fill-rule="evenodd" transform="matrix(.24293957 0 0 .24293957 -20.217606 33.679752)"><path d="m153.5 130.41-113.12 67.17 146.469-9.939 11.281-147.691z" fill="url(#a)" transform="translate(144 -77.58)"/><path d="m140.209 145.93 46.88 41.61-12.589-86.89z" fill="url(#c)" transform="translate(144 -77.58)"/><path d="m40.87 197.391 146.389-9.851-92.229-7.24z" fill="url(#d)" transform="translate(144 -77.58)"/><path d="m13.34 132.771 27.66 64.639 23.04-75.48z" fill="url(#e)" transform="translate(144 -77.58)"/><path d="m58.33 120.01 81.87 26.17-21.2-83.04z" fill="url(#f)" transform="translate(144 -77.58)"/><path d="m120 69.1 73.32-4.79-57.35-46.84z" fill="url(#g)" transform="translate(144 -77.58)"/><path d="m111.49.52 55.01.25-33.73 18.64z" fill="url(#h)" transform="translate(144 -77.58)"/><path d="m2.7 101.62-2.7 56.47 14.13-25.77z" fill="url(#i)" transform="translate(144 -77.58)"/><path d="m145.94 23.07 11.5 32.62 49.97-11.211 57.05-53.02 16.1-51.139-25.351-17.9-43.1 16.13c-13.579 12.63-39.929 37.62-40.879 38.09-.94.48-17.4 31.59-25.29 46.43z" fill="#fff"/><path d="m186.32-35.53c29.43-29.18 67.37-46.42 81.93-31.73 14.551 14.69-.88 50.39-30.31 79.56s-66.9 47.36-81.45 32.67c-14.56-14.68.4-51.33 29.83-80.5z" fill="url(#j)"/><path d="m185 119.8 22.86-75.72 75.92 24.39c-27.45 25.74-57.98 47.5-98.78 51.33z" fill="url(#k)"/><path d="m264.56-8.69 19.49 77.2c22.93-24.11 43.51-50.03 53.589-82.09z" fill="url(#l)"/><path d="m337.44-13.19c7.8-23.54 9.6-57.31-27.181-63.58l-30.18 16.67z" fill="url(#m)"/><path d="m144 80.17c1.08 38.851 29.11 39.43 41.05 39.771l-27.58-64.411z" fill="#9e1209"/><path d="m264.669-8.57c17.62 10.83 53.131 32.58 53.851 32.98 1.119.63 15.31-23.93 18.53-37.81z" fill="url(#n)"/><path d="m207.83 44.08 30.56 58.96c18.07-9.8 32.22-21.74 45.18-34.53z" fill="url(#o)"/><path d="m157.35 55.61-4.33 51.56c8.17 11.16 19.41 12.13 31.2 11.26-8.53-21.23-25.57-63.68-26.87-62.82z" fill="url(#p)"/><path d="m279.9-59.97 60.71 8.52c-3.24-13.73-13.19-22.59-30.15-25.36z" fill="url(#q)"/></g></svg>

<svg height="77.665001" version="1.0" width="77.665001" xmlns="http://www.w3.org/2000/svg" xmlns:xlink="http://www.w3.org/1999/xlink"><defs><linearGradient id="a" gradientTransform="scale(1.0058652 .994169)" gradientUnits="userSpaceOnUse" x1="45.447727" x2="45.447727" y1="92.539597" y2="7.01654"><stop offset="0"/><stop offset="1" stop-opacity=".588235"/></linearGradient><filter id="b" color-interpolation-filters="sRGB"><feGaussianBlur stdDeviation="1.71"/></filter><linearGradient id="c" gradientUnits="userSpaceOnUse" x1="174.0737" x2="132.276306" y1="215.548798" y2="141.753296"><stop offset="0" stop-color="#fb7655"/><stop offset="0" stop-color="#fb7655"/><stop offset=".41" stop-color="#e42b1e"/><stop offset=".99" stop-color="#900"/><stop offset="1" stop-color="#900"/></linearGradient><linearGradient id="d" gradientUnits="userSpaceOnUse" x1="194.895004" x2="141.027603" y1="153.557602" y2="117.409302"><stop offset="0" stop-color="#871101"/><stop offset="0" stop-color="#871101"/><stop offset=".99" stop-color="#911209"/><stop offset="1" stop-color="#911209"/></linearGradient><linearGradient id="e" gradientUnits="userSpaceOnUse" x1="151.795395" x2="97.929703" y1="217.785202" y2="181.638"><stop offset="0" stop-color="#871101"/><stop offset="0" stop-color="#871101"/><stop offset=".99" stop-color="#911209"/><stop offset="1" stop-color="#911209"/></linearGradient><linearGradient id="f" gradientUnits="userSpaceOnUse" x1="38.696301" x2="47.046902" y1="127.390602" y2="181.661407"><stop offset="0" stop-color="#fff"/><stop offset="0" stop-color="#fff"/><stop offset=".23" stop-color="#e57252"/><stop offset=".46" stop-color="#de3b20"/><stop offset=".99" stop-color="#a60003"/><stop offset="1" stop-color="#a60003"/></linearGradient><linearGradient id="g" gradientUnits="userSpaceOnUse" x1="96.132797" x2="99.209602" y1="76.715302" y2="132.102097"><stop offset="0" stop-color="#fff"/><stop offset="0" stop-color="#fff"/><stop offset=".23" stop-color="#e4714e"/><stop offset=".56" stop-color="#be1a0d"/><stop offset=".99" stop-color="#a80d00"/><stop offset="1" stop-color="#a80d00"/></linearGradient><linearGradient id="h" gradientUnits="userSpaceOnUse" x1="147.102997" x2="156.314102" y1="25.521" y2="65.216202"><stop offset="0" stop-color="#fff"/><stop offset="0" stop-color="#fff"/><stop offset=".18" stop-color="#e46342"/><stop offset=".4" stop-color="#c82410"/><stop offset=".99" stop-color="#a80d00"/><stop offset="1" stop-color="#a80d00"/></linearGradient><linearGradient id="i" gradientUnits="userSpaceOnUse" x1="118.976097" x2="158.668594" y1="11.5415" y2="-8.3048"><stop offset="0" stop-color="#fff"/><stop offset="0" stop-color="#fff"/><stop offset=".54" stop-color="#c81f11"/><stop offset=".99" stop-color="#bf0905"/><stop offset="1" stop-color="#bf0905"/></linearGradient><linearGradient id="j" gradientUnits="userSpaceOnUse" x1="3.9033" x2="7.1702" y1="113.554703" y2="146.262802"><stop offset="0" stop-color="#fff"/><stop offset="0" stop-color="#fff"/><stop offset=".31" stop-color="#de4024"/><stop offset=".99" stop-color="#bf190b"/><stop offset="1" stop-color="#bf190b"/></linearGradient><linearGradient id="k" gradientTransform="translate(144 -77.58)" gradientUnits="userSpaceOnUse" x1="-18.5557" x2="135.015198" y1="155.104507" y2="-2.8093"><stop offset="0" stop-color="#bd0012"/><stop offset="0" stop-color="#bd0012"/><stop offset=".07" stop-color="#fff"/><stop offset=".17" stop-color="#fff"/><stop offset=".27" stop-color="#c82f1c"/><stop offset=".33" stop-color="#820c01"/><stop offset=".46" stop-color="#a31601"/><stop offset=".72" stop-color="#b31301"/><stop offset=".99" stop-color="#e82609"/><stop offset="1" stop-color="#e82609"/></linearGradient><linearGradient id="l" gradientTransform="translate(144 -77.58)" gradientUnits="userSpaceOnUse" x1="99.074699" x2="52.817699" y1="171.033203" y2="159.616592"><stop offset="0" stop-color="#8c0c01"/><stop offset="0" stop-color="#8c0c01"/><stop offset=".54" stop-color="#990c00"/><stop offset=".99" stop-color="#a80d0e"/><stop offset="1" stop-color="#a80d0e"/></linearGradient><linearGradient id="m" gradientTransform="translate(144 -77.58)" gradientUnits="userSpaceOnUse" x1="178.525894" x2="137.432693" y1="115.514603" y2="78.683998"><stop offset="0" stop-color="#7e110b"/><stop offset="0" stop-color="#7e110b"/><stop offset=".99" stop-color="#9e0c00"/><stop offset="1" stop-color="#9e0c00"/></linearGradient><linearGradient id="n" gradientTransform="translate(144 -77.58)" gradientUnits="userSpaceOnUse" x1="193.623505" x2="173.154205" y1="47.937" y2="26.053801"><stop offset="0" stop-color="#79130d"/><stop offset="0" stop-color="#79130d"/><stop offset=".99" stop-color="#9e120b"/><stop offset="1" stop-color="#9e120b"/></linearGradient><radialGradient id="o" cx="143.831497" cy="79.388199" gradientTransform="translate(144 -77.58)" gradientUnits="userSpaceOnUse" r="50.357601"><stop offset="0" stop-color="#a80d00"/><stop offset="0" stop-color="#a80d00"/><stop offset=".99" stop-color="#7e0e08"/><stop offset="1" stop-color="#7e0e08"/></radialGradient><radialGradient id="p" cx="74.0923" cy="145.751007" gradientTransform="translate(144 -77.58)" gradientUnits="userSpaceOnUse" r="66.943703"><stop offset="0" stop-color="#a30c00"/><stop offset="0" stop-color="#a30c00"/><stop offset=".99" stop-color="#800e08"/><stop offset="1" stop-color="#800e08"/></radialGradient><linearGradient id="q" gradientTransform="translate(144 -77.58)" gradientUnits="userSpaceOnUse" x1="26.669901" x2="9.9887" y1="197.335907" y2="140.742004"><stop offset="0" stop-color="#8b2114"/><stop offset="0" stop-color="#8b2114"/><stop offset=".43" stop-color="#9e100a"/><stop offset=".99" stop-color="#b3100c"/><stop offset="1" stop-color="#b3100c"/></linearGradient><linearGradient id="r" gradientTransform="translate(144 -77.58)" gradientUnits="userSpaceOnUse" x1="154.641098" x2="192.039001" y1="9.7979" y2="26.305901"><stop offset="0" stop-color="#b31000"/><stop offset="0" stop-color="#b31000"/><stop offset=".44" stop-color="#910f08"/><stop offset=".99" stop-color="#791c12"/><stop offset="1" stop-color="#791c12"/></linearGradient><linearGradient id="s" gradientUnits="userSpaceOnUse" x1="174.0737" x2="132.276306" xlink:href="#c" y1="215.548798" y2="141.753296"/><linearGradient id="t" gradientUnits="userSpaceOnUse" x1="194.895004" x2="141.027603" xlink:href="#d" y1="153.557602" y2="117.409302"/><linearGradient id="u" gradientUnits="userSpaceOnUse" x1="151.795395" x2="97.929703" xlink:href="#e" y1="217.785202" y2="181.638"/><linearGradient id="v" gradientUnits="userSpaceOnUse" x1="38.696301" x2="47.046902" xlink:href="#f" y1="127.390602" y2="181.661407"/><linearGradient id="w" gradientUnits="userSpaceOnUse" x1="96.132797" x2="99.209602" xlink:href="#g" y1="76.715302" y2="132.102097"/><linearGradient id="x" gradientUnits="userSpaceOnUse" x1="147.102997" x2="156.314102" xlink:href="#h" y1="25.521" y2="65.216202"/><linearGradient id="y" gradientUnits="userSpaceOnUse" x1="118.976097" x2="158.668594" xlink:href="#i" y1="11.5415" y2="-8.3048"/><linearGradient id="z" gradientUnits="userSpaceOnUse" x1="3.9033" x2="7.1702" xlink:href="#j" y1="113.554703" y2="146.262802"/><linearGradient id="A" gradientTransform="translate(144 -77.58)" gradientUnits="userSpaceOnUse" x1="-18.5557" x2="135.015198" xlink:href="#k" y1="155.104507" y2="-2.8093"/><linearGradient id="B" gradientTransform="translate(144 -77.58)" gradientUnits="userSpaceOnUse" x1="99.074699" x2="52.817699" xlink:href="#l" y1="171.033203" y2="159.616592"/><linearGradient id="C" gradientTransform="translate(144 -77.58)" gradientUnits="userSpaceOnUse" x1="178.525894" x2="137.432693" xlink:href="#m" y1="115.514603" y2="78.683998"/><linearGradient id="D" gradientTransform="translate(144 -77.58)" gradientUnits="userSpaceOnUse" x1="193.623505" x2="173.154205" xlink:href="#n" y1="47.937" y2="26.053801"/><radialGradient id="E" cx="143.831497" cy="79.388199" gradientTransform="translate(144 -77.58)" gradientUnits="userSpaceOnUse" r="50.357601" xlink:href="#o"/><radialGradient id="F" cx="74.0923" cy="145.751007" gradientTransform="translate(144 -77.58)" gradientUnits="userSpaceOnUse" r="66.943703" xlink:href="#p"/><linearGradient id="G" gradientTransform="translate(144 -77.58)" gradientUnits="userSpaceOnUse" x1="26.669901" x2="9.9887" xlink:href="#q" y1="197.335907" y2="140.742004"/><linearGradient id="H" gradientTransform="translate(144 -77.58)" gradientUnits="userSpaceOnUse" x1="154.641098" x2="192.039001" xlink:href="#r" y1="9.7979" y2="26.305901"/></defs><g display="none" transform="translate(0 -18.335)"><rect fill="url(#a)" filter="url(#b)" height="85" opacity=".9" rx="6" ry="6" width="86" x="5" y="7"/></g><g transform="matrix(.24293957 0 0 .24293957 -20.217606 33.679752)"><path d="M153.5 130.41L40.38 197.58 186.849 187.641 198.13 39.95Z" fill="url(#s)" fill-rule="evenodd" transform="translate(144 -77.58)"/><path d="M140.209 145.93L187.089 187.54 174.5 100.65Z" fill="url(#t)" fill-rule="evenodd" transform="translate(144 -77.58)"/><path d="M40.87 197.391L187.259 187.54 95.03 180.3Z" fill="url(#u)" fill-rule="evenodd" transform="translate(144 -77.58)"/><path d="M13.34 132.771L41 197.41 64.04 121.93Z" fill="url(#v)" fill-rule="evenodd" transform="translate(144 -77.58)"/><path d="M58.33 120.01L140.2 146.18 119 63.14Z" fill="url(#w)" fill-rule="evenodd" transform="translate(144 -77.58)"/><path d="M120 69.1L193.32 64.31 135.97 17.47Z" fill="url(#x)" fill-rule="evenodd" transform="translate(144 -77.58)"/><path d="M111.49.52L166.5.77 132.77 19.41Z" fill="url(#y)" fill-rule="evenodd" transform="translate(144 -77.58)"/><path d="M2.7 101.62L0 158.09 14.13 132.32Z" fill="url(#z)" fill-rule="evenodd" transform="translate(144 -77.58)"/><path d="m145.94 23.07l11.5 32.62 49.97-11.211 57.05-53.02 16.1-51.139-25.351-17.9-43.1 16.13c-13.579 12.63-39.929 37.62-40.879 38.09-.94.48-17.4 31.59-25.29 46.43z" fill="#fff" fill-rule="evenodd"/><path d="m186.32-35.53c29.43-29.18 67.37-46.42 81.93-31.73 14.551 14.69-.88 50.39-30.31 79.56-29.43 29.17-66.9 47.36-81.45 32.67C141.93 30.29 156.89-6.36 186.32-35.53Z" fill="url(#A)" fill-rule="evenodd"/><path d="M185 119.8L207.86 44.08 283.78 68.47C256.33 94.21 225.8 115.97 185 119.8Z" fill="url(#B)" fill-rule="evenodd"/><path d="M264.56-8.69L284.05 68.51c22.93-24.11 43.51-50.03 53.589-82.09l-73.079 4.89z" fill="url(#C)" fill-rule="evenodd"/><path d="m337.44-13.19c7.8-23.54 9.6-57.31-27.181-63.58L280.079-60.1 337.44-13.19Z" fill="url(#D)" fill-rule="evenodd"/><path d="M144 80.17C145.08 119.021 173.11 119.6 185.05 119.941L157.47 55.53 144 80.17Z" fill="#9e1209" fill-rule="evenodd"/><path d="M264.669-8.57C282.289 2.26 317.8 24.01 318.52 24.41c1.119.63 15.31-23.93 18.53-37.81l-72.381 4.83z" fill="url(#E)" fill-rule="evenodd"/><path d="M207.83 44.08L238.39 103.04c18.07-9.8 32.22-21.74 45.18-34.53L207.83 44.08Z" fill="url(#F)" fill-rule="evenodd"/><path d="m157.35 55.61l-4.33 51.56c8.17 11.16 19.41 12.13 31.2 11.26C175.69 97.2 158.65 54.75 157.35 55.61Z" fill="url(#G)" fill-rule="evenodd"/><path d="m279.9-59.97l60.71 8.52c-3.24-13.73-13.19-22.59-30.15-25.36l-30.56 16.84z" fill="url(#H)" fill-rule="evenodd"/></g></svg>
